X:1

T:Devil’s Own Shot, The

M:6/8

L:1/8

R:Jig

S:Ryan’s Mammoth Collection (1883)

Z:AK/Fiddler’s Companion

K:D

d2A Bcd|edc d2e|fed fag|f2e d2A|d2A Bcd|edc d2e|fed fag|f2e d2z:|
|:def agf|gef g3|fag fed|gfg efg|def agf|gef (g2.a)|bag fed|ABc d2 z:|

 

DEVIL’S POLSKA. AKA and see “Hins Polska.”

 

DEVIL'S PROGRESS, THE. English, Air (6/8 time). G Major. Standard tuning. AB. The ballad appears in Pills to Purge Melancholy of 1699, 1707 and 1719. Chappell (Popular Music of the Olden Times), vol. 2, 1859; pg. 75.

